boxicons/svg/solid/bxs-sun.svg

<svg xmlns="http://www.w3.org/2000/svg" width="24" height="24" viewBox="0 0 24 24"><path d="M6.995 12c0 2.761 2.246 5.007 5.007 5.007s5.007-2.246 5.007-5.007-2.246-5.007-5.007-5.007S6.995 9.239 6.995 12zM11 19h2v3h-2zm0-17h2v3h-2zm-9 9h3v2H2zm17 0h3v2h-3zM5.637 19.778l-1.414-1.414 2.121-2.121 1.414 1.414zM16.242 6.344l2.122-2.122 1.414 1.414-2.122 2.122zM6.344 7.759 4.223 5.637l1.415-1.414 2.12 2.122zm13.434 10.605-1.414 1.414-2.122-2.122 1.414-1.414z"/></svg>

<svg xmlns="http://www.w3.org/2000/svg" width="24" height="24" viewBox="0 0 24 24"><path d="M6.995 12c0 2.761 2.246 5.007 5.007 5.007s5.007-2.246 5.007-5.007-2.246-5.007-5.007-5.007S6.995 9.239 6.995 12zM11 19H13V22H11zM11 2H13V5H11zM2 11H5V13H2zM19 11H22V13H19z"/><path transform="rotate(-134.999 5.99 18.01)" d="M4.989 16.51H6.989V19.51H4.989z"/><path transform="rotate(-45.001 18.01 5.99)" d="M16.51 4.99H19.511000000000003V6.99H16.51z"/><path transform="rotate(-134.983 5.99 5.99)" d="M4.489 4.99H7.489V6.99H4.489z"/><path transform="rotate(134.999 18.01 18.01)" d="M17.01 16.51H19.01V19.511000000000003H17.01z"/></svg>
